rospo-icon-theme-classic-common/64x64/places/folder-black-dropbox.svg

<svg height="64" width="64" xmlns="http://www.w3.org/2000/svg"><rect height="32" opacity=".2" rx="2.5" width="50" x="7" y="24"/><path d="m7 44.5c0 1.385 1.115 2.5 2.5 2.5h45c1.385 0 2.5-1.115 2.5-2.5v-27c0-1.385-1.115-2.5-2.5-2.5h-25.5v-2.5c0-1.385-1.115-2.5-2.5-2.5h-17c-1.385 0-2.5 1.115-2.5 2.5" fill="#3f3f3f"/><rect height="32" opacity=".2" rx="2.5" width="50" x="7" y="22"/><rect fill="#dcdcdc" height="20" rx="2.5" width="44" x="10" y="18"/><rect fill="#4f4f4f" height="32" rx="2.5" width="50" x="7" y="23"/><path d="m9.5 10c-1.385 0-2.5 1.115-2.5 2.5v1c0-1.385 1.115-2.5 2.5-2.5h17c1.385 0 2.5 1.115 2.5 2.5v-1c0-1.385-1.115-2.5-2.5-2.5zm19.5 5v1h25.5c1.39 0 2.5 1.115 2.5 2.5v-1c0-1.385-1.11-2.5-2.5-2.5z" fill="#fff" opacity=".1"/><path d="m26.66 27.8-6.66 4 5.34 4-5.36 4 6.68 4 5.34-4-6.66-4 6.66-4 6.66 4-6.66 4 5.34 4 6.68-4-5.36-4 5.34-4-6.66-4-5.34 4zm5.34 13.2-5.34 4-1.32-.8v.8l6.66 4 6.66-4v-.8l-1.32.8z" fill="#c2c2c2"/></svg>

<svg xmlns="http://www.w3.org/2000/svg" width="64" height="64" version="1.1">
 <rect style="opacity:0.2" width="50" height="32" x="7" y="24" rx="2.5" ry="2.5"/>
 <path style="fill:#3f3f3f" d="M 7,44.5 C 7,45.885 8.115,47 9.5,47 H 54.5 C 55.885,47 57,45.885 57,44.5 V 17.5 C 57,16.115 55.885,15 54.5,15 H 29 V 12.5 C 29,11.115 27.885,10 26.5,10 H 9.5 C 8.115,10 7,11.115 7,12.5"/>
 <rect style="opacity:0.2" width="50" height="32" x="7" y="22" rx="2.5" ry="2.5"/>
 <rect style="fill:#dcdcdc" width="44" height="20" x="10" y="18" rx="2.5" ry="2.5"/>
 <rect style="fill:#4f4f4f" width="50" height="32" x="7" y="23" rx="2.5" ry="2.5"/>
 <path style="opacity:0.1;fill:#ffffff" d="M 9.5,10 C 8.115,10 7,11.115 7,12.5 V 13.5 C 7,12.115 8.115,11 9.5,11 H 26.5 C 27.885,11 29,12.115 29,13.5 V 12.5 C 29,11.115 27.885,10 26.5,10 Z M 29,15 V 16 H 54.5 C 55.89,16 57,17.115 57,18.5 V 17.5 C 57,16.115 55.89,15 54.5,15 Z"/>
 <path style="fill:#c2c2c2" d="M 26.66,27.8 20,31.8 25.34,35.8 19.98,39.8 26.66,43.8 32,39.8 25.34,35.8 32,31.8 38.66,35.8 32,39.8 37.34,43.8 44.02,39.8 38.66,35.8 44,31.8 37.34,27.8 32,31.8 Z M 32,41 26.66,45 25.34,44.2 V 45 L 32,49 38.66,45 V 44.2 L 37.34,45 Z"/>
</svg>
